vendor/shopware/storefront/Resources/app/storefront/dist/assets/icon/solid/checkmark-large.svg

<svg xmlns="http://www.w3.org/2000/svg" xmlns:xlink="http://www.w3.org/1999/xlink" width="16" height="16" viewBox="0 0 16 16">
  <defs>
    <path id="icons-small-default-checkmark-line-large-a" d="M1.70710678,6.29289322 C1.31658249,5.90236893 0.683417511,5.90236893 0.292893219,6.29289322 C-0.0976310729,6.68341751 -0.0976310729,7.31658249 0.292893219,7.70710678 L5.29289322,12.7071068 C5.68341751,13.0976311 6.31658249,13.0976311 6.70710678,12.7071068 L15.7071068,3.70710678 C16.0976311,3.31658249 16.0976311,2.68341751 15.7071068,2.29289322 C15.3165825,1.90236893 14.6834175,1.90236893 14.2928932,2.29289322 L6,10.5857864 L1.70710678,6.29289322 Z"/>
  </defs>
  <use fill="#758CA3" fill-rule="evenodd" xlink:href="#icons-small-default-checkmark-line-large-a"/>
</svg>

<svg xmlns="http://www.w3.org/2000/svg" xmlns:xlink="http://www.w3.org/1999/xlink" width="16" height="16" viewBox="0 0 16 16"><defs><path id="icons-small-default-checkmark-line-large-a" d="M1.7071 6.2929c-.3905-.3905-1.0237-.3905-1.4142 0-.3905.3905-.3905 1.0237 0 1.4142l5 5c.3905.3905 1.0237.3905 1.4142 0l9-9c.3905-.3905.3905-1.0237 0-1.4142-.3905-.3905-1.0237-.3905-1.4142 0L6 10.5858l-4.2929-4.293z"/></defs><use fill="#758CA3" fill-rule="evenodd" xlink:href="#icons-small-default-checkmark-line-large-a"/></svg>
